X:270
T: LEBE WOHL ES NAHT DIE STUNDE
N: E1413
O: Europa, Mitteleuropa, Deutschland; Frankreich, Elsass, Weissenburg
R: Staende -, Soldaten - Lied, Krieg, Abschied
M: 3/4
L: 1/16
K: Ab
A3B | c6d2c3B | c4A2
c2e2A2 | B6c2d2c2 | B8z4 |
B3AG2F2E2D2 | C2E2c4
E2E2 | d3Gc4B4 | A8z4 |
A4A4A4 | f4d4
A4 | d6e2f4 | e4c4z4 |
c4B4c4 | e4d4
E4 | c6c2B4 | A8

@@@ Tune index: 4954
